tgui/packages/tgfont/icons/t-crowbar.svg

<?xml version="1.0" encoding="UTF-8" standalone="no"?>
<!-- Created with Inkscape (http://www.inkscape.org/) -->

<svg
   width="180"
   height="180"
   viewBox="0 0 180 180"
   version="1.1"
   id="svg1"
   xml:space="preserve"
   inkscape:version="1.3 (0e150ed6c4, 2023-07-21)"
   sodipodi:docname="t-crowbar.svg"
   xmlns:inkscape="http://www.inkscape.org/namespaces/inkscape"
   xmlns:sodipodi="http://sodipodi.sourceforge.net/DTD/sodipodi-0.dtd"
   xmlns="http://www.w3.org/2000/svg"
   xmlns:svg="http://www.w3.org/2000/svg"><sodipodi:namedview
     id="namedview1"
     pagecolor="#ffffff"
     bordercolor="#000000"
     borderopacity="0.25"
     inkscape:showpageshadow="2"
     inkscape:pageopacity="0.0"
     inkscape:pagecheckerboard="true"
     inkscape:deskcolor="#d1d1d1"
     inkscape:document-units="px"
     inkscape:zoom="11.205556"
     inkscape:cx="90"
     inkscape:cy="73.133366"
     inkscape:window-width="3840"
     inkscape:window-height="2294"
     inkscape:window-x="-11"
     inkscape:window-y="-11"
     inkscape:window-maximized="1"
     inkscape:current-layer="layer1" /><defs
     id="defs1" /><g
     inkscape:label="Layer 1"
     inkscape:groupmode="layer"
     id="layer1"><g
       id="g2050"><path
         id="path2051"
         style="fill-opacity:1;fill:#f9f9f9"
         d="M 124.99414 32.908203 L 78.1875 80.310547 L 31.378906 127.71289 L 24.738281 127.71289 C 17.598985 127.71289 15.911132 134.28565 21.582031 140.00195 C 23.497871 141.93313 28.839558 143.51367 33.453125 143.51367 L 41.841797 143.51367 L 86.023438 98.744141 C 110.32351 74.12161 132.124 53.976562 134.46875 53.976562 L 138.73242 53.976562 L 137.19727 63.193359 L 135.66211 72.410156 L 142.92969 72.410156 L 150.19922 72.410156 L 155.77344 63.501953 L 161.34766 54.59375 L 151.61328 43.751953 L 141.88086 32.908203 L 133.4375 32.908203 L 124.99414 32.908203 z " /></g></g></svg>

<svg xmlns="http://www.w3.org/2000/svg" xml:space="preserve" width="180" height="180"><path d="M124.994 32.908 78.188 80.311l-46.81 47.402h-6.64c-7.139 0-8.827 6.573-3.156 12.289 1.916 1.931 7.258 3.512 11.871 3.512h8.389l44.181-44.77c24.3-24.622 46.101-44.767 48.446-44.767h4.263l-1.535 9.216-1.535 9.217H150.2l5.573-8.908 5.575-8.908-9.735-10.842-9.732-10.844h-16.887" style="fill-opacity:1;fill:#f9f9f9"/></svg>
